X:1405
T:Arthur Darley's
T:The Swedish Jig
D:Mick Moloney, Strings Attached
Z:Nigel Gatherer <gatherer@argonet.co.uk>
M:6/8
L:1/8
K:D
ABA AGF|EDC D2 D|Ade fed|efc d2 d|Ade fed|
edc d3|BAG FED|
M:9/8
ECD DA,B, CDE|
M:6/8
Ddd ede|fef g2 g|fed edc|1d2 d dcB:|2d2 d d=c_B|]
K:Dm
A2 f fef|A2 f fef|Aff Agg|Aaa Abb|A2 f fef|A2 f f2 g|
fed ed^c|1d3 dcB:|2d3-d2|]
K:D
e|fed edc|(3ddd d BAG|
FED EDC|DA,B, CDE|Ddd ede|fef g2 g|fed edc|d3 d2:|
